X: 1
T: Reel Eboulement
M: 4/4
L: 1/8
R: reel
K: Amaj
aA~A2 cAeA|Bcde f2fg|aA~A2 cAeA|fdge ~a3g|
aA~A2 cAeA|Bcde f2fg|agfe fedc|1dfec A2fg:|2dfec A2ed||
cAEA cAeA|Bcde f2ed|cAEA cAeA|fdge a2ed|
cAEA cAeA|Bcde f2fg|agfe fedc|1dfec A2ed:|2dfec A2AF||
EAAB cABA|GABc dBEB|GBEB GBEB|GBEB A2cA|
eAAB c2BA|GABc defg|agfe fedc|1dfec A2AF:|2defg a2||
